X:58
T:Village Maid. LIT.058, The
M:2/4
Q:1/4=115
L:1/8
B:Wm. Litten MS, 1802
Z:Village Music Project 2017 Anne Wride
K:G
G/F/G/A/ GB | AG G2 | B/A/B/c/ Bd | cB B2 |
eg/e/ da/f/ | db/g/ db | c'a gf | g2 g2 :|
|: bg ef/g/ | af de/f/ | ge d^c | d/^c/d/e/ dd |
bg ef/g/ | af de/f/ | ge d^c | d2d2 |
G/F/G/A/ GB | AG G2 | B/A/B/c/ Bd | cB B2 |
eg/e/ da/f/ | db/g/ db | c'a gf | g2G2 :|
|:de/d/ cB | dd cB | ef/e/ dc | ee dc |
de/d/ cB | dd cB | cA GF | G2G2:|
|: Dd/^c/ dd | Bg fg | Dd/^c/ dd | Bg fg |
cc' c'c' | Bb bb | a/b/a/g/ f/g/f/e/ | d/e/d/c/ B/c/B/A/ |
de/d/ cB | dd cB | ef/e/ dc | ee dc |
de/d/ cB | dd cB | cA GF | G2G2 :|

